backend/papyrus-web-graphics/src/main/resources/icons-override/full/obj16/LinkEndCreationData.svg

<?xml version="1.0" encoding="UTF-8" standalone="no"?>
<svg
   width="18"
   height="16"
   viewBox="0 0 4.7624999 4.2333332"
   version="1.1"
   id="svg8"
   inkscape:version="1.3 (0e150ed, 2023-07-21)"
   sodipodi:docname="LinkEndCreationData.svg"
   xml:space="preserve"
   xmlns:inkscape="http://www.inkscape.org/namespaces/inkscape"
   xmlns:sodipodi="http://sodipodi.sourceforge.net/DTD/sodipodi-0.dtd"
   xmlns:xlink="http://www.w3.org/1999/xlink"
   xmlns="http://www.w3.org/2000/svg"
   xmlns:svg="http://www.w3.org/2000/svg"
   xmlns:rdf="http://www.w3.org/1999/02/22-rdf-syntax-ns#"
   xmlns:cc="http://creativecommons.org/ns#"
   xmlns:dc="http://purl.org/dc/elements/1.1/"><metadata
     id="metadata22"><rdf:RDF><cc:Work
         rdf:about=""><dc:format>image/svg+xml</dc:format><dc:type
           rdf:resource="http://purl.org/dc/dcmitype/StillImage" /></cc:Work></rdf:RDF></metadata><defs
     id="defs2"><linearGradient
       inkscape:collect="always"
       id="linearGradient872"><stop
         style="stop-color:#cae2f9;stop-opacity:1;"
         offset="0"
         id="stop868" /><stop
         style="stop-color:#fdfeff;stop-opacity:1"
         offset="1"
         id="stop870" /></linearGradient><linearGradient
       inkscape:collect="always"
       xlink:href="#linearGradient872"
       id="linearGradient874"
       x1="144.28606"
       y1="144.28606"
       x2="23.45978"
       y2="3.8806121"
       gradientUnits="userSpaceOnUse"
       gradientTransform="matrix(0.02182306,0,0,0.01486256,0.67662211,1.1022859)" /><linearGradient
       inkscape:collect="always"
       id="linearGradient5007"><stop
         style="stop-color:#cae2f9;stop-opacity:1;"
         offset="0"
         id="stop5009" /><stop
         style="stop-color:#e6eef5;stop-opacity:1"
         offset="1"
         id="stop5011" /></linearGradient><linearGradient
       gradientTransform="matrix(0.27350664,0,0,0.28579866,5.8971503,0.74472219)"
       y2="5.6373863"
       x2="1.7325838"
       y1="7.1840277"
       x1="2.5760703"
       gradientUnits="userSpaceOnUse"
       id="linearGradient5618"
       xlink:href="#linearGradient5007"
       inkscape:collect="always" /><linearGradient
       id="linearGradient5591-4"><stop
         style="stop-color:#e0e566;stop-opacity:1;"
         offset="0"
         id="stop5593-0" /><stop
         style="stop-color:#82c448;stop-opacity:1;"
         offset="1"
         id="stop5595-5" /></linearGradient><linearGradient
       id="linearGradient5583-2"><stop
         style="stop-color:#426e4a;stop-opacity:1;"
         offset="0"
         id="stop5585-3" /><stop
         style="stop-color:#669f71;stop-opacity:1;"
         offset="1"
         id="stop5587-3" /></linearGradient><linearGradient
       inkscape:collect="always"
       xlink:href="#linearGradient872"
       id="linearGradient865"
       x1="-47.666786"
       y1="112.97314"
       x2="-163.75984"
       y2="34.596439"
       gradientUnits="userSpaceOnUse"
       gradientTransform="matrix(0.00998666,0,0,0.01146447,-1.5444891,1.8063531)" /></defs><sodipodi:namedview
     id="base"
     pagecolor="#ffffff"
     bordercolor="#666666"
     borderopacity="1.0"
     inkscape:pageopacity="0"
     inkscape:pageshadow="2"
     inkscape:zoom="18.897886"
     inkscape:cx="-3.1220423"
     inkscape:cy="5.1063913"
     inkscape:document-units="mm"
     inkscape:current-layer="g882-2"
     inkscape:document-rotation="0"
     showgrid="false"
     inkscape:pagecheckerboard="false"
     inkscape:window-width="2560"
     inkscape:window-height="1440"
     inkscape:window-x="0"
     inkscape:window-y="0"
     inkscape:window-maximized="0"
     units="px"
     inkscape:showpageshadow="2"
     inkscape:deskcolor="#d1d1d1" /><g
     id="g19"><g
       id="g882"><g
         id="g905"
         transform="matrix(0.8685122,0,0,1,0.2616871,-0.03852298)"
         style="stroke-width:1.07303"><path
           id="rect881"
           style="fill:url(#linearGradient874);fill-opacity:1;stroke:#4d81b4;stroke-width:0.227125;stroke-linejoin:bevel;stroke-miterlimit:4;stroke-dasharray:none;stroke-dashoffset:0;stroke-opacity:1"
           d="M 1.1885862,1.1599618 H 3.8253845 V 3.2467463 H 1.1885862 Z" /><path
           style="fill:none;stroke:#4d81b4;stroke-width:0.227125;stroke-linecap:butt;stroke-linejoin:miter;stroke-miterlimit:4;stroke-dasharray:none;stroke-opacity:1"
           d="M 1.4637652,2.8230061 H 3.5502055"
           id="path883-3" /><path
           style="fill:none;stroke:#4d81b4;stroke-width:0.210222;stroke-linecap:butt;stroke-linejoin:miter;stroke-miterlimit:4;stroke-dasharray:none;stroke-dashoffset:0;stroke-opacity:1"
           d="M 2.5069854,1.8571839 V 1.5926006"
           id="path883-3-3" /><path
           style="fill:none;stroke:#4d81b4;stroke-width:0.224781;stroke-linecap:butt;stroke-linejoin:miter;stroke-miterlimit:4;stroke-dasharray:none;stroke-dashoffset:0;stroke-opacity:1"
           d="M 2.5069854,2.4570925 V 2.0602175"
           id="path883-3-3-6" /></g><g
         id="g882-2"
         transform="translate(-5.3949649,-2.0985363)"><text
           xml:space="preserve"
           style="font-size:2.94021px;fill:#2d6296;fill-opacity:1;stroke:#2d6296;stroke-width:0.15;stroke-linecap:square;stroke-linejoin:bevel;stroke-dasharray:none;stroke-opacity:1"
           x="6.7756891"
           y="4.5333457"
           id="text1-3"
           transform="scale(0.86215793,1.1598803)"><tspan
             sodipodi:role="line"
             id="tspan1-6"
             style="fill:#2d6296;fill-opacity:1;stroke:#2d6296;stroke-width:0.15;stroke-dasharray:none;stroke-opacity:1"
             x="6.7756891"
             y="4.5333457">[</tspan></text><rect
           style="fill:#2e4f6e;fill-opacity:1;stroke:#2e4f6e;stroke-width:0.18;stroke-linecap:round;stroke-dasharray:none;stroke-opacity:1"
           id="rect1"
           width="0.79415017"
           height="0.76059455"
           x="6.1295824"
           y="2.5208237" /><path
           style="display:inline;fill:url(#linearGradient5618);fill-opacity:1;stroke:#2e4f6e;stroke-width:0.126;stroke-linecap:butt;stroke-linejoin:miter;stroke-miterlimit:4;stroke-dasharray:none;stroke-opacity:1"
           d="m 6.2947264,2.1290568 h 0.4450007 l 0.00882,0.5669835 h 0.5470132 l -0.00441,0.4262292 H 6.7317333 V 3.7028329 H 6.2991378 V 3.1222695 H 5.743853 L 5.739443,2.6917489 h 0.5555604 z"
           id="path5581"
           inkscape:connector-curvature="0"
           sodipodi:nodetypes="ccccccccccccc" /><text
           xml:space="preserve"
           style="font-size:2.94021px;fill:#2d6296;fill-opacity:1;stroke:#2d6296;stroke-width:0.15;stroke-linecap:square;stroke-linejoin:bevel;stroke-dasharray:none;stroke-opacity:1"
           x="-11.407027"
           y="4.5281863"
           id="text1-3-5"
           transform="scale(-0.86215793,1.1598803)"><tspan
             sodipodi:role="line"
             id="tspan1-6-5"
             style="fill:#2d6296;fill-opacity:1;stroke:#2d6296;stroke-width:0.15;stroke-dasharray:none;stroke-opacity:1"
             x="-11.407027"
             y="4.5281863">[</tspan></text></g></g></g></svg>

<svg xmlns="http://www.w3.org/2000/svg" xmlns:xlink="http://www.w3.org/1999/xlink" xml:space="preserve" width="16" height="16">
    <defs>
        <linearGradient id="a">
            <stop offset="0" style="stop-color:#cae2f9;stop-opacity:1"/>
            <stop offset="1" style="stop-color:#fdfeff;stop-opacity:1"/>
        </linearGradient>
        <linearGradient xlink:href="#a" id="c" x1="144.286" x2="23.46" y1="144.286" y2="3.881" gradientTransform="matrix(.02182 0 0 .01486 .677 1.102)" gradientUnits="userSpaceOnUse"/>
        <linearGradient id="b">
            <stop offset="0" style="stop-color:#cae2f9;stop-opacity:1"/>
            <stop offset="1" style="stop-color:#e6eef5;stop-opacity:1"/>
        </linearGradient>
        <linearGradient xlink:href="#b" id="d" x1="2.576" x2="1.733" y1="7.184" y2="5.637" gradientTransform="matrix(.2735 0 0 .2858 5.897 .745)" gradientUnits="userSpaceOnUse"/>
    </defs>
    <g style="stroke-width:1.07303">
        <path d="M1.189 1.16h2.636v2.087H1.19Z" style="fill:url(#c);fill-opacity:1;stroke:#4d81b4;stroke-width:.227125;stroke-linejoin:bevel;stroke-miterlimit:4;stroke-dasharray:none;stroke-dashoffset:0;stroke-opacity:1" transform="matrix(3.2646 0 0 3.75885 .209 .096)"/>
        <path d="M1.464 2.823H3.55" style="fill:none;stroke:#4d81b4;stroke-width:.227125;stroke-linecap:butt;stroke-linejoin:miter;stroke-miterlimit:4;stroke-dasharray:none;stroke-opacity:1" transform="matrix(3.2646 0 0 3.75885 .209 .096)"/>
        <path d="M2.507 1.857v-.264" style="fill:none;stroke:#4d81b4;stroke-width:.210222;stroke-linecap:butt;stroke-linejoin:miter;stroke-miterlimit:4;stroke-dasharray:none;stroke-dashoffset:0;stroke-opacity:1" transform="matrix(3.2646 0 0 3.75885 .209 .096)"/>
        <path d="M2.507 2.457V2.06" style="fill:none;stroke:#4d81b4;stroke-width:.224781;stroke-linecap:butt;stroke-linejoin:miter;stroke-miterlimit:4;stroke-dasharray:none;stroke-dashoffset:0;stroke-opacity:1" transform="matrix(3.2646 0 0 3.75885 .209 .096)"/>
    </g>
    <text xml:space="preserve" x="6.776" y="4.533" style="font-size:2.94021px;fill:#2d6296;fill-opacity:1;stroke:#2d6296;stroke-width:.15;stroke-linecap:square;stroke-linejoin:bevel;stroke-dasharray:none;stroke-opacity:1" transform="matrix(3.24072 0 0 4.35982 -21.054 -7.648)"><tspan x="6.776" y="4.533" style="fill:#2d6296;fill-opacity:1;stroke:#2d6296;stroke-width:.15;stroke-dasharray:none;stroke-opacity:1">[</tspan></text>
    <path d="M6.13 2.521h.794v.761H6.13z" style="fill:#2e4f6e;fill-opacity:1;stroke:#2e4f6e;stroke-width:.18;stroke-linecap:round;stroke-dasharray:none;stroke-opacity:1" transform="translate(-21.054 -7.648)scale(3.75885)"/>
    <path d="M6.295 2.13h.445l.009.566h.547l-.005.426h-.56v.58H6.3v-.58h-.555l-.005-.43h.556z" style="display:inline;fill:url(#d);fill-opacity:1;stroke:#2e4f6e;stroke-width:.126;stroke-linecap:butt;stroke-linejoin:miter;stroke-miterlimit:4;stroke-dasharray:none;stroke-opacity:1" transform="translate(-21.054 -7.648)scale(3.75885)"/>
    <text xml:space="preserve" x="-11.407" y="4.528" style="font-size:2.94021px;fill:#2d6296;fill-opacity:1;stroke:#2d6296;stroke-width:.15;stroke-linecap:square;stroke-linejoin:bevel;stroke-dasharray:none;stroke-opacity:1" transform="matrix(-3.24072 0 0 4.35982 -21.054 -7.648)"><tspan x="-11.407" y="4.528" style="fill:#2d6296;fill-opacity:1;stroke:#2d6296;stroke-width:.15;stroke-dasharray:none;stroke-opacity:1">[</tspan></text>
</svg>
